src/icons/open-preview.svg

<svg width="16" height="16" viewBox="0 0 16 16" fill="none" xmlns="http://www.w3.org/2000/svg">
<path fill-rule="evenodd" clip-rule="evenodd" d="M2 1H13L14 2V7.30005C13.6853 7.14615 13.3475 7.04476 13 7V2H8V12.88L6.88 14H2L1 13V2L2 1ZM2 13H7V2H2V13ZM12.4087 8.00202C11.9898 8.01773 11.5812 8.13726 11.22 8.34992H11.1899C10.9005 8.52448 10.6493 8.75571 10.4514 9.02973C10.2535 9.30375 10.113 9.61487 10.0383 9.94453C9.96362 10.2742 9.95616 10.6156 10.0166 10.9482C10.077 11.2808 10.2041 11.5977 10.39 11.88L8.03003 14.2299L8.73999 14.9399L11.09 12.5799C11.4151 12.8004 11.7895 12.9378 12.1801 12.9799C12.565 13.0271 12.9555 12.9825 13.3199 12.8499C13.6987 12.7225 14.0415 12.5065 14.3199 12.2199C14.59 11.9374 14.7889 11.5946 14.9 11.2199C15.0081 10.8465 15.0319 10.4537 14.97 10.0699C14.9005 9.68581 14.7431 9.32307 14.51 9.00996C14.277 8.6929 13.972 8.43582 13.62 8.25996C13.2438 8.07495 12.8276 7.98631 12.4087 8.00202ZM12.6497 11.9943C12.3047 12.0285 11.9586 11.9422 11.67 11.7499C11.4215 11.5822 11.227 11.3459 11.11 11.0699C10.999 10.7974 10.9712 10.4982 11.03 10.2099C11.0865 9.91792 11.229 9.64957 11.4393 9.43928C11.6496 9.22898 11.918 9.08644 12.21 9.02998C12.4982 8.97115 12.7975 8.99894 13.0699 9.10993C13.346 9.2269 13.5823 9.42149 13.75 9.66999C13.9422 9.95851 14.0286 10.3046 13.9944 10.6496C13.9602 10.9946 13.8075 11.3172 13.5624 11.5623C13.3172 11.8075 12.9947 11.9601 12.6497 11.9943Z" fill="#C5C5C5"/>
</svg>

<svg width="16" height="16" xmlns="http://www.w3.org/2000/svg"><path fill-rule="evenodd" clip-rule="evenodd" d="M2 1h11l1 1v5.3a3.21 3.21 0 0 0-1-.3V2H8v10.88L6.88 14H2l-1-1V2l1-1zm0 12h5V2H2v11zm10.409-4.998a2.53 2.53 0 0 0-1.189.348h-.03a2.51 2.51 0 0 0-.8 3.53l-2.36 2.35.71.71 2.35-2.36c.325.22.7.358 1.09.4.385.047.776.002 1.14-.13a2.51 2.51 0 0 0 1-.63 2.46 2.46 0 0 0 .58-1 2.63 2.63 0 0 0 .07-1.15 2.529 2.529 0 0 0-1.35-1.81 2.53 2.53 0 0 0-1.211-.258zm.24 3.992a1.5 1.5 0 0 1-.979-.244 1.55 1.55 0 0 1-.56-.68 1.49 1.49 0 0 1-.08-.86 1.49 1.49 0 0 1 1.18-1.18 1.49 1.49 0 0 1 .86.08c.276.117.512.311.68.56a1.5 1.5 0 0 1-1.1 2.324z"/></svg>
